X: 109
T: Hui guannan
L: 1/16
M: 2/4
K: C
d d d e d c A c [I:setbarnb 1]| 
d8 | 
e d B AG4 | 
A A A B A G E D | 
G8 | 
A2 A2 d e d c | 
G z B d d2 B2 | 
A A A c A G F F | 
G8 |]

@@@ Tune index: 8983
